X:9
T:McLeod's Reel
M:2/4
Q:1/4=100
L:1/16
K:G
V:1
%%MIDI channel 1
%%MIDI program 72
%%MIDI transpose 8
%%MIDI grace 1/8
%%MIDI ratio 3 1
|:BA|.G2g2 edeg|B2{c}BA B2BA|.G2g2 edeg|A2{B}AG AcBA|
.G2g2 edeg|B2{c}BA B2d2|e2>f2 edef|gedB A2::
BA|GABc dBGA|BcBA BcBA|GABc dBGB|A2{B}AG AcBA|
GABc dBGA|BcBA B2d2|e2>f2 edef|gedB A2:|
V:2
%%MIDI channel 1
%%MIDI program 72
%%MIDI transpose 8
%%MIDI grace 1/8
%%MIDI ratio 3 1
|:!p!BA|GDGB c2ce|dBGE D2BA|GDGB c2ce|dcAF D2FA|
GDGB c2ce|dBGE D2B2|c2>A2 c2c2|B2G2 F2::
D2|B2G2 BGD2|G2d2 B2D2|B2G2 BGD2|dcAD F2c2|
B2G2 BGD2|G2d2 gdB2|c2>G2 c2c2|B2G2 F2:|
